TPFinal/static/svgs/solid/gauge.svg

<svg xmlns="http://www.w3.org/2000/svg" viewBox="0 0 512 512"><!--! Font Awesome Free 6.2.1 by @fontawesome - https://fontawesome.com License - https://fontawesome.com/license/free (Icons: CC BY 4.0, Fonts: SIL OFL 1.1, Code: MIT License) Copyright 2022 Fonticons, Inc. --><path d="M512 256c0 141.4-114.6 256-256 256S0 397.4 0 256S114.6 0 256 0S512 114.6 512 256zM320 352c0-26.9-16.5-49.9-40-59.3V88c0-13.3-10.7-24-24-24s-24 10.7-24 24V292.7c-23.5 9.5-40 32.5-40 59.3c0 35.3 28.7 64 64 64s64-28.7 64-64zM144 176c17.7 0 32-14.3 32-32s-14.3-32-32-32s-32 14.3-32 32s14.3 32 32 32zm-16 80c0-17.7-14.3-32-32-32s-32 14.3-32 32s14.3 32 32 32s32-14.3 32-32zm288 32c17.7 0 32-14.3 32-32s-14.3-32-32-32s-32 14.3-32 32s14.3 32 32 32zM400 144c0-17.7-14.3-32-32-32s-32 14.3-32 32s14.3 32 32 32s32-14.3 32-32z"/></svg>

<svg xmlns="http://www.w3.org/2000/svg" viewBox="0 0 512 512"><!--! Font Awesome Free 6.1.1 by @fontawesome - https://fontawesome.com License - https://fontawesome.com/license/free (Icons: CC BY 4.0, Fonts: SIL OFL 1.1, Code: MIT License) Copyright 2022 Fonticons, Inc. --><path d="M512 256C512 397.4 397.4 512 256 512C114.6 512 0 397.4 0 256C0 114.6 114.6 0 256 0C397.4 0 512 114.6 512 256zM280 292.7V88C280 74.75 269.3 64 256 64C242.7 64 232 74.75 232 88V292.7C208.5 302.1 192 325.1 192 352C192 387.3 220.7 416 256 416C291.3 416 320 387.3 320 352C320 325.1 303.5 302.1 280 292.7zM144 176C161.7 176 176 161.7 176 144C176 126.3 161.7 112 144 112C126.3 112 112 126.3 112 144C112 161.7 126.3 176 144 176zM96 224C78.33 224 64 238.3 64 256C64 273.7 78.33 288 96 288C113.7 288 128 273.7 128 256C128 238.3 113.7 224 96 224zM416 288C433.7 288 448 273.7 448 256C448 238.3 433.7 224 416 224C398.3 224 384 238.3 384 256C384 273.7 398.3 288 416 288zM368 112C350.3 112 336 126.3 336 144C336 161.7 350.3 176 368 176C385.7 176 400 161.7 400 144C400 126.3 385.7 112 368 112z"/></svg>
